assets/Smiling face with sunglasses/Flat/smiling_face_with_sunglasses_flat.svg

<svg width="32" height="32" viewBox="0 0 32 32" fill="none" xmlns="http://www.w3.org/2000/svg">
<path d="M15.9989 29.9978C25.3333 29.9978 29.9978 23.7303 29.9978 15.9989C29.9978 8.26751 25.3333 2 15.9989 2C6.66443 2 2 8.26751 2 15.9989C2 23.7303 6.66443 29.9978 15.9989 29.9978Z" fill="#FFB02E"/>
<path d="M11.8395 18.4566C11.5433 17.9987 10.9333 17.8621 10.4695 18.1523C10.0013 18.4453 9.85933 19.0624 10.1523 19.5305L10.1531 19.5317L10.1538 19.5328L10.1554 19.5354L10.1589 19.5409L10.1676 19.5543C10.1741 19.5642 10.1819 19.5759 10.1913 19.5895C10.2099 19.6165 10.2343 19.6507 10.2648 19.6909C10.3259 19.7713 10.4117 19.8761 10.5249 19.9967C10.7514 20.2382 11.0879 20.5432 11.5554 20.8423C12.4995 21.4464 13.9369 22 16 22C18.0632 22 19.5005 21.4464 20.4446 20.8423C20.9121 20.5432 21.2486 20.2382 21.4752 19.9967C21.5883 19.8761 21.6741 19.7713 21.7352 19.6909C21.7657 19.6507 21.7902 19.6165 21.8088 19.5895C21.8181 19.5759 21.826 19.5642 21.8324 19.5543L21.8411 19.5409L21.8447 19.5354L21.8462 19.5328L21.847 19.5317L21.8477 19.5305C22.1409 19.0625 21.9987 18.4453 21.5305 18.1523C21.0667 17.8621 20.4567 17.9987 20.1606 18.4566C20.1582 18.4599 20.1523 18.4683 20.1426 18.481C20.1206 18.51 20.0793 18.5614 20.0166 18.6283C19.8913 18.7619 19.6806 18.9568 19.3667 19.1577C18.7478 19.5536 17.6852 20 16 20C14.3148 20 13.2522 19.5536 12.6333 19.1577C12.3194 18.9568 12.1088 18.7619 11.9834 18.6283C11.9207 18.5614 11.8794 18.51 11.8574 18.481C11.8477 18.4683 11.8418 18.4599 11.8395 18.4566Z" fill="#402A32"/>
<path d="M11 5H5C2.79086 5 1 6.79086 1 9V9.67376C1 12.3252 2.49802 14.749 4.8695 15.9348L5.80534 16.4027C7.20729 17.1036 8.84913 17.1967 10.3252 16.6696C13.1112 15.6746 15 13.0253 15 10.067V9C15 6.79086 13.2091 5 11 5Z" fill="#321B41"/>
<path d="M20.5 5H27.5C29.433 5 31 6.567 31 8.5V9.67376C31 12.3252 29.502 14.749 27.1305 15.9348L26.1947 16.4027C24.7927 17.1036 23.1509 17.1967 21.6748 16.6696C18.8888 15.6746 17 13.0253 17 10.067V8.5C17 6.567 18.567 5 20.5 5Z" fill="#321B41"/>
<path d="M14 6.35418C13.2671 5.52375 12.1947 5 11 5H5C2.79086 5 1 6.79086 1 9V9.67376C1 12.3252 2.49802 14.749 4.8695 15.9348L5.80534 16.4027C7.20729 17.1036 8.84912 17.1967 10.3252 16.6696C13.1112 15.6746 15 13.0253 15 10.067V10C15 9.44772 15.4477 9 16 9C16.5523 9 17 9.44772 17 10V10.067C17 13.0253 18.8888 15.6746 21.6748 16.6696C23.1509 17.1967 24.7927 17.1036 26.1947 16.4027L27.1305 15.9348C29.502 14.749 31 12.3252 31 9.67376V8.5C31 6.567 29.433 5 27.5 5H20.5C19.3759 5 18.3756 5.52992 17.7352 6.35357V6.35077C17.7206 6.36537 17.704 6.3824 17.6855 6.40132C17.4936 6.59759 17.1031 6.9969 16.7395 7H14.9957C14.6321 6.9969 14.2418 6.59771 14.0499 6.40145C14.0314 6.38253 14.0146 6.36538 14 6.35077V6.35418ZM11 6C12.6569 6 14 7.34315 14 9V10.067C14 12.5975 12.3817 14.8732 9.9889 15.7278C8.76683 16.1643 7.40816 16.086 6.25255 15.5082L5.31672 15.0403C3.28401 14.024 2 11.9464 2 9.67376V9C2 7.34315 3.34315 6 5 6H11ZM18 8.5C18 7.11929 19.1193 6 20.5 6H27.5C28.8807 6 30 7.11929 30 8.5V9.67376C30 11.9464 28.716 14.024 26.6833 15.0403L25.7474 15.5082C24.5918 16.086 23.2332 16.1643 22.0111 15.7278C19.6183 14.8732 18 12.5975 18 10.067V8.5Z" fill="#8D65C5"/>
<path d="M12.3891 10.2678C12.9749 9.68199 12.8166 8.57395 12.0356 7.7929C11.2545 7.01186 10.1465 6.85356 9.56069 7.43935C8.9749 8.02514 9.13319 9.13318 9.91424 9.91422C10.6953 10.6953 11.8033 10.8536 12.3891 10.2678Z" fill="white"/>
<path d="M28.3891 10.2678C28.9749 9.68199 28.8166 8.57395 28.0356 7.7929C27.2545 7.01186 26.1465 6.85356 25.5607 7.43935C24.9749 8.02514 25.1332 9.13318 25.9142 9.91422C26.6953 10.6953 27.8033 10.8536 28.3891 10.2678Z" fill="white"/>
</svg>

<svg xmlns="http://www.w3.org/2000/svg" width="32" height="32" fill="none"><path fill="#FFB02E" d="M15.999 29.998c9.334 0 13.999-6.268 13.999-14 0-7.73-4.665-13.998-14-13.998C6.665 2 2 8.268 2 15.999c0 7.731 4.664 13.999 13.999 13.999Z"/><path fill="#402A32" d="M11.84 18.457a1 1 0 0 0-1.688 1.073l.001.002.002.003.004.006.009.013a1.758 1.758 0 0 0 .097.137c.06.08.147.185.26.306.226.241.563.546 1.03.845C12.5 21.446 13.937 22 16 22s3.5-.554 4.445-1.158c.467-.299.804-.604 1.03-.845a3.901 3.901 0 0 0 .357-.443l.01-.013.003-.006.001-.002.001-.001v-.002a1 1 0 0 0-1.686-1.073l-.018.024a1.9 1.9 0 0 1-.126.147 3.413 3.413 0 0 1-.65.53c-.62.396-1.682.842-3.367.842s-2.748-.446-3.367-.842a3.416 3.416 0 0 1-.65-.53 1.9 1.9 0 0 1-.144-.171Z"/><path fill="#321B41" d="M11 5H5a4 4 0 0 0-4 4v.674a7 7 0 0 0 3.87 6.26l.935.469c1.402.7 3.044.794 4.52.267C13.111 15.675 15 13.025 15 10.067V9a4 4 0 0 0-4-4ZM20.5 5h7A3.5 3.5 0 0 1 31 8.5v1.174a7 7 0 0 1-3.87 6.26l-.935.469a5.785 5.785 0 0 1-4.52.267C18.889 15.675 17 13.025 17 10.067V8.5A3.5 3.5 0 0 1 20.5 5Z"/><path fill="#8D65C5" d="M14 6.354A3.99 3.99 0 0 0 11 5H5a4 4 0 0 0-4 4v.674a7 7 0 0 0 3.87 6.26l.935.469c1.402.7 3.044.794 4.52.267C13.111 15.675 15 13.025 15 10.067V10a1 1 0 1 1 2 0v.067c0 2.958 1.889 5.608 4.675 6.603a5.785 5.785 0 0 0 4.52-.267l.936-.468A7 7 0 0 0 31 9.674V8.5A3.5 3.5 0 0 0 27.5 5h-7c-1.124 0-2.124.53-2.765 1.354V6.35l-.05.05c-.191.197-.582.596-.945.599h-1.744c-.364-.003-.754-.402-.946-.599a6.86 6.86 0 0 0-.05-.05v.003ZM11 6a3 3 0 0 1 3 3v1.067c0 2.53-1.618 4.806-4.011 5.66a4.785 4.785 0 0 1-3.736-.219l-.936-.468A6 6 0 0 1 2 9.674V9a3 3 0 0 1 3-3h6Zm7 2.5A2.5 2.5 0 0 1 20.5 6h7A2.5 2.5 0 0 1 30 8.5v1.174a6 6 0 0 1-3.317 5.366l-.936.468a4.784 4.784 0 0 1-3.736.22C19.618 14.873 18 12.598 18 10.067V8.5Z"/><path fill="#fff" d="M12.39 10.268c.585-.586.427-1.694-.354-2.475-.781-.781-1.89-.94-2.475-.354-.586.586-.428 1.694.353 2.475.781.781 1.89.94 2.475.354ZM28.39 10.268c.585-.586.427-1.694-.354-2.475-.782-.781-1.89-.94-2.475-.354-.586.586-.428 1.694.353 2.475.781.781 1.89.94 2.475.354Z"/></svg>
